**kern	**silbe	**kern	**silbe	**harmony	**chordsym	**phrase	**timestamp	**leadinstrument
*ICvox	*	*ICvox	*	*M4/4	*M4/4	*	*	*
*	*	*	*	*B:	*B:	*	*	*
=1	=1	=1	=1	=1	=1	=1	=1	=1
*B:	*	*B:	*	*	*	*	*	*
*M4/4	*	*M4/4	*	*	*	*	*	*
*clefG2	*	*clefG2	*	*	*	*	*	*
1r	.	1r	.	1r;	r	.	0	r
=2	=2	=2	=2	=2	=2	=2	=2	=2
*	*	*	*	*>A_intro	*>A_intro	*>A_intro	*>A_intro	*>A_intro
1r	.	1r	.	1BM	B:maj (B D# F#)	newline	0.395	keyboard
=3	=3	=3	=3	=3	=3	=3	=3	=3
1r	.	1r	.	2EM	E:sus4(b7,9) (E A B D F#)	.	.	keyboard
.	.	.	.	2EM	E:maj (E G# B)	.	.	keyboard
=4	=4	=4	=4	=4	=4	=4	=4	=4
1r	.	1r	.	1F#M	F#:maj(9) (A# F# C# G#)	.	.	keyboard
=5	=5	=5	=5	=5	=5	=5	=5	=5
1r	.	1r	.	1D#mm	D#:min7 (D# F# A# C#)	.	.	keyboard
=6	=6	=6	=6	=6	=6	=6	=6	=6
1r	.	1r	.	1G#mm	G#:min7 (G# B D# F#)	newline	8.874	keyboard
=7	=7	=7	=7	=7	=7	=7	=7	=7
1r	.	1r	.	1C#mm	C#:min7 (C# E G# B)	.	.	keyboard
=8	=8	=8	=8	=8	=8	=8	=8	=8
1r	.	1r	.	1F#M	F#:sus4(b7,9) (F# B C# E G#)	.	.	keyboard
=9	=9	=9	=9	=9	=9	=9	=9	=9
*clefF4	*	*	*	*	*	*	*	*
4r	.	1r	.	2F#M	F#:sus4(b7,9) (F# B C# E G#)	.	.	keyboard
8r	.	.	.	.	.	.	.	.
8B	I	.	.	.	.	.	.	.
6d#	ne-	.	.	4EM	E:maj (E G# B)	.	.	keyboard
6e	-ver	.	.	.	.	.	.	.
.	.	.	.	4F#M	F#:sus4(b7,9) (F# B C# E G#)	.	.	keyboard
6f#	knew	.	.	.	.	.	.	.
=10	=10	=10	=10	=10	=10	=10	=10	=10
*	*	*	*	*>A_verse	*>A_verse	*>A_verse	*>A_verse	*>A_verse
4f#	love	2f#	Ooh	1BM	B:maj (B D# F#)	newline	17.369	voice
[4g#	like	.	.	.	.	.	.	.
8g#]	_	2b	_	.	.	.	.	.
8e	this	.	.	.	.	.	.	.
8d#	be-	.	.	.	.	.	.	.
[8e	-fore,	.	.	.	.	.	.	.
=11	=11	=11	=11	=11	=11	=11	=11	=11
4e]	_	1cc#	...	2EM	E:sus4(b7,9) (E A B D F#)	.	.	voice
4r	.	.	.	.	.	.	.	.
4c#	now	.	.	2EM	E:maj (E G# B)	.	.	voice
8d#	I'm	.	.	.	.	.	.	.
8d#	l-	.	.	.	.	.	.	.
=12	=12	=12	=12	=12	=12	=12	=12	=12
8f#q	_	.	.	.	.	.	.	.
4g#	-one-	1r	.	1F#M	F#:maj (A# F# C#)	.	.	voice
4f#	-ly	.	.	.	.	.	.	.
8c#q	_	.	.	.	.	.	.	.
4d#	ne-	.	.	.	.	.	.	.
8c#	-ver-	.	.	.	.	.	.	.
8c#	-more	.	.	.	.	.	.	.
=13	=13	=13	=13	=13	=13	=13	=13	=13
4B	...	1r	.	1D#mm	D#:min7 (D# F# A# C#)	.	.	voice
4r	.	.	.	.	.	.	.	.
8r	.	.	.	.	.	.	.	.
8d#	since	.	.	.	.	.	.	.
8c#	you	.	.	.	.	.	.	.
8c#	came,	.	.	.	.	.	.	.
=14	=14	=14	=14	=14	=14	=14	=14	=14
4B	_	1r	.	1G#mm	G#:min7 (G# B D# F#)	newline	25.85	voice
8r	.	.	.	.	.	.	.	.
8G#	in-	.	.	.	.	.	.	.
8B	-to	.	.	.	.	.	.	.
8c#q	_	.	.	.	.	.	.	.
[8d#	my	.	.	.	.	.	.	.
8d#]	_	.	.	.	.	.	.	.
8c#q	_	.	.	.	.	.	.	.
8d#	life	.	.	.	.	.	.	.
=15	=15	=15	=15	=15	=15	=15	=15	=15
8c#q	_	.	.	.	.	.	.	.
8d#	_	1r	.	1C#mm	C#:min7 (C# E G# B)	.	.	voice
[8c#	_	.	.	.	.	.	.	.
2c#]	_	.	.	.	.	.	.	.
4r	.	.	.	.	.	.	.	.
=16	=16	=16	=16	=16	=16	=16	=16	=16
1r	.	1r	.	1F#M	F#:sus4(b7,9) (F# B C# E G#)	.	.	voice
=17	=17	=17	=17	=17	=17	=17	=17	=17
4r	.	1r	.	1F#M	F#:sus4(b7,9) (F# B C# E G#)	.	.	voice
8r	.	.	.	.	.	.	.	.
8A	y-	.	.	.	.	.	.	.
6d#	-ou	.	.	.	.	.	.	.
6e	are	.	.	.	.	.	.	.
6f#	my	.	.	.	.	.	.	.
=18	=18	=18	=18	=18	=18	=18	=18	=18
4f#	love-	2f#	Ooh	1BM	B:maj (B D# F#)	newline	34.337	voice
[4g#	-light,	.	.	.	.	.	.	.
8g#]	_	2b	_	.	.	.	.	.
8e	this	.	.	.	.	.	.	.
8d#	I	.	.	.	.	.	.	.
[8e	know	.	.	.	.	.	.	.
=19	=19	=19	=19	=19	=19	=19	=19	=19
4e]	_	1cc#	...	2EM	E:sus4(b7,9) (E A B D F#)	.	.	voice
4r	.	.	.	.	.	.	.	.
8c#	And	.	.	2EM	E:maj (E G# B)	.	.	voice
8c#	I-	.	.	.	.	.	.	.
4d#	-'ll	.	.	.	.	.	.	.
=20	=20	=20	=20	=20	=20	=20	=20	=20
8f#q	_	.	.	.	.	.	.	.
4g#	ne-	1r	.	1F#M	F#:maj (A# F# C#)	.	.	voice
4f#	-ver	.	.	.	.	.	.	.
8c#q	_	.	.	.	.	.	.	.
4d#	let	.	.	.	.	.	.	.
8c#	you	.	.	.	.	.	.	.
8c#	go	.	.	.	.	.	.	.
=21	=21	=21	=21	=21	=21	=21	=21	=21
2B	_	1r	.	1D#mm	D#:min7 (D# F# A# C#)	.	.	voice
8r	.	.	.	.	.	.	.	.
8d#	You're	.	.	.	.	.	.	.
8c#	my	.	.	.	.	.	.	.
8c#	all	.	.	.	.	.	.	.
=22	=22	=22	=22	=22	=22	=22	=22	=22
4B	_	1r	.	1G#mm	G#:min7 (G# B D# F#)	newline	42.823	voice
8r	.	.	.	.	.	.	.	.
8G#	You're	.	.	.	.	.	.	.
8B	part	.	.	.	.	.	.	.
8c#	_	.	.	.	.	.	.	.
8d#	of	.	.	.	.	.	.	.
8d#	me	.	.	.	.	.	.	.
=23	=23	=23	=23	=23	=23	=23	=23	=23
16c#	_	1r	.	1C#mm	C#:min7 (C# E G# B)	.	.	voice
16B	_	.	.	.	.	.	.	.
[8c#	_	.	.	.	.	.	.	.
2c#]	_	.	.	.	.	.	.	.
4r	.	.	.	.	.	.	.	.
=24	=24	=24	=24	=24	=24	=24	=24	=24
1r	.	1r	.	1F#M	F#:sus4(b7,9) (F# B C# E G#)	.	.	voice
=25	=25	=25	=25	=25	=25	=25	=25	=25
2r	.	1r	.	1F#M	F#:sus4(b7,9) (F# B C# E G#)	.	.	voice
6d#	Once	.	.	.	.	.	.	.
6e	I	.	.	.	.	.	.	.
6f#	was	.	.	.	.	.	.	.
=26	=26	=26	=26	=26	=26	=26	=26	=26
4f#	lost	2f#	Ooh	1BM	B:maj (B D# F#)	newline	51.318	voice
[4g#	and	.	.	.	.	.	.	.
8g#]	_	2b	_	.	.	.	.	.
8e	now	.	.	.	.	.	.	.
8d#	I'm	.	.	.	.	.	.	.
[8e	found,	.	.	.	.	.	.	.
=27	=27	=27	=27	=27	=27	=27	=27	=27
4e]	_	1cc#	...	2EM	E:sus4(b7,9) (E A B D F#)	.	.	voice
4r	.	.	.	.	.	.	.	.
8c#	then	.	.	2EM	E:maj (E G# B)	.	.	voice
8c#	y-	.	.	.	.	.	.	.
4d#	-ou	.	.	.	.	.	.	.
=28	=28	=28	=28	=28	=28	=28	=28	=28
8f#q	_	.	.	.	.	.	.	.
4g#	turned	1r	.	1F#M	F#:maj (A# F# C#)	.	.	voice
4f#	my	.	.	.	.	.	.	.
8c#q	_	.	.	.	.	.	.	.
4d#	life	.	.	.	.	.	.	.
8c#	a-	.	.	.	.	.	.	.
8c#	-round	.	.	.	.	.	.	.
=29	=29	=29	=29	=29	=29	=29	=29	=29
2B	_	1r	.	1D#mm	D#:min7 (D# F# A# C#)	.	.	voice
8r	.	.	.	.	.	.	.	.
8d#	When	.	.	.	.	.	.	.
8c#	I	.	.	.	.	.	.	.
8c#	need,	.	.	.	.	.	.	.
=30	=30	=30	=30	=30	=30	=30	=30	=30
4B	_	1r	.	1G#mm	G#:min7 (G# B D# F#)	newline	59.852	voice
8r	.	.	.	.	.	.	.	.
8G#	I	.	.	.	.	.	.	.
8B	call	.	.	.	.	.	.	.
8c#	_	.	.	.	.	.	.	.
8d#	your	.	.	.	.	.	.	.
8d#	name	.	.	.	.	.	.	.
=31	=31	=31	=31	=31	=31	=31	=31	=31
2.c#	_	1r	.	1C#mm	C#:min7 (C# E G# B)	.	.	voice
4r	.	.	.	.	.	.	.	.
=32	=32	=32	=32	=32	=32	=32	=32	=32
2r	.	2r	.	1F#M	F#:sus4(b7,9) (F# B C# E G#)	.	.	voice
8r	.	8r	.	.	.	.	.	.
8B	'Cause	8d# f#	'Cause	.	.	.	.	.
8c#	I	8e g#	I	.	.	.	.	.
8d#	ne-	8g# b	ne-	.	.	.	.	.
=33	=33	=33	=33	=33	=33	=33	=33	=33
4d#	-ver,	4g# b	-ver	2.F#M	F#:sus4(b7,9) (F# B C# E G#)	.	.	voice
4r	.	4r	.	.	.	.	.	.
4r	.	4r	.	.	.	.	.	.
4d#	knew	4g# b	knew	4D#mm	D#:min7 (D# F# A# C#)	.	.	voice
=34	=34	=34	=34	=34	=34	=34	=34	=34
*	*	*	*	*>B_chorus	*>B_chorus	*>B_chorus	*>B_chorus	*>B_chorus
8c#	love	8f# a#	love	1EMM	E:maj7 (E G# B D#)	newline	68.286	voice
8c#	l-	8f# a#	l-	.	.	.	.	.
4c#	-ike	4f# a#	-ike	.	.	.	.	.
4f#	this	4b dd#	this	.	.	.	.	.
8d#	be-	8g# b	be-	.	.	.	.	.
[8B	-fore	[8e [g#	-fore!	.	.	.	.	.
=35	=35	=35	=35	=35	=35	=35	=35	=35
2B]	_	2e] g#]	_	2D#mm	D#:min7 (D# F# A# C#)	.	.	voice
2r	.	2r	.	2G#mm	G#:min7 (G# B D# F#)	.	.	voice
=36	=36	=36	=36	=36	=36	=36	=36	=36
8g#	O-	2r	.	1C#mm	C#:min7 (C# E G# B)	.	.	voice
8f#	-pened	.	.	.	.	.	.	.
8d#	my	.	.	.	.	.	.	.
[8f#	eyes,	.	.	.	.	.	.	.
8f#]	_	8r	.	.	.	.	.	.
8B	'cause	8d# f#	'Cause	.	.	.	.	.
8c#	I	8e g#	I	.	.	.	.	.
8d#	ne-	8g# b	ne-	.	.	.	.	.
=37	=37	=37	=37	=37	=37	=37	=37	=37
8c#q	_	.	.	.	.	.	.	.
4d#	-ver,	4g# b	-ver	1D#mm	D#:min7 (D# F# A# C#)	.	.	voice
4r	.	4r	.	.	.	.	.	.
4r	.	4r	.	.	.	.	.	.
4d#	knew	4g# b	knew	.	.	.	.	.
=38	=38	=38	=38	=38	=38	=38	=38	=38
8c#	love	8f# a#	love	1EMM	E:maj7 (E G# B D#)	newline	76.843	voice
8c#	l-	8f# a#	l-	.	.	.	.	.
4c#	-ike	4f# a#	-ike	.	.	.	.	.
4f#	this	4b dd#	this	.	.	.	.	.
8d#	be-	8g# b	be-	.	.	.	.	.
[8B	-fore	[8e [g#	-fore!	.	.	.	.	.
=39	=39	=39	=39	=39	=39	=39	=39	=39
4.B]	_	2e] g#]	_	2D#mm	D#:min7 (D# F# A# C#)	.	.	voice
8r	.	.	.	.	.	.	.	.
2r	.	2r	.	2G#mm	G#:min7 (G# B D# F#)	.	.	voice
=40	=40	=40	=40	=40	=40	=40	=40	=40
8g#	What	2r	.	1C#mm	C#:min7 (C# E G# B)	.	.	voice
8f#	a	.	.	.	.	.	.	.
8d#	sur-	.	.	.	.	.	.	.
[8f#	-prise,	.	.	.	.	.	.	.
8f#]	_	8r	.	.	.	.	.	.
8B	'cause	8d# f#	'Cause	.	.	.	.	.
8c#	I	8e g#	I	.	.	.	.	.
8d#	ne-	8g# b	ne-	.	.	.	.	.
=41	=41	=41	=41	=41	=41	=41	=41	=41
8c#q	_	.	.	.	.	.	.	.
4d#	-ver,	4g# b	-ver	1D#mm	D#:min7 (D# F# A# C#)	.	.	voice
4r	.	4r	.	.	.	.	.	.
4r	.	4r	.	.	.	.	.	.
4d#	knew	4g# b	knew	.	.	.	.	.
=42	=42	=42	=42	=42	=42	=42	=42	=42
8c#	love	8f# a#	love	1EMM	E:maj7 (E G# B D#)	newline	85.286	voice
8c#	l-	8f# a#	l-	.	.	.	.	.
4c#	-ike	4f# a#	-ike	.	.	.	.	.
4f#	this	4b dd#	this	.	.	.	.	.
8d#	be-	8g# b	be-	.	.	.	.	.
[8B	-fore	[8c# [g#	-fore!	.	.	.	.	.
=43	=43	=43	=43	=43	=43	=43	=43	=43
2B_	_	2c#_ g#]	_	2D#mm	D#:min7 (D# F# A# C#)	.	.	voice
8B]	_	8c#] g#	_	2G#mm	G#:min7 (G# B D# F#)	.	.	voice
8c#	_	8c# a#	_	.	.	.	.	.
8d#	_	8d# b	_	.	.	.	.	.
16d#	_	[8e [g# [b	_	.	.	.	.	.
[16c#	_	.	.	.	.	.	.	.
=44	=44	=44	=44	=44	=44	=44	=44	=44
2c#]	_	2e] g#] b]	_	2C#m	C#:sus4(b7) (C# F# G# B)	.	.	voice
2r	.	2r	.	2C#Mm	C#:7 (C# E# G# B)	.	.	voice
=45	=45	=45	=45	=45	=45	=45	=45	=45
4r	.	1r	.	1F#M	F#:sus4(b7,9) (F# B C# E G#)	.	.	voice
8r	.	.	.	.	.	.	.	.
8B	This	.	.	.	.	.	.	.
6d#	fee-	.	.	.	.	.	.	.
6e	-ling's	.	.	.	.	.	.	.
6f#	so	.	.	.	.	.	.	.
=46	=46	=46	=46	=46	=46	=46	=46	=46
*	*	*	*	*>A_instrumental	*>A_instrumental	*>A_instrumental	*>A_instrumental	*>A_instrumental
4f#	deep	2f#	Ooh	1BM	B:maj (B D# F#)	newline	93.742	voice
[4g#	in	.	.	.	.	.	.	.
8g#]	_	2b	_	.	.	.	.	.
8e	side	.	.	.	.	.	.	.
8d#	of	.	.	.	.	.	.	.
[8e	me,	.	.	.	.	.	.	.
=47	=47	=47	=47	=47	=47	=47	=47	=47
4e]	_	1cc#	...	2EM	E:sus4(b7,9) (E A B D F#)	.	.	voice
4r	.	.	.	.	.	.	.	.
4c#	such	.	.	2EM	E:maj (E G# B)	.	.	voice
4d#	a	.	.	.	.	.	.	.
=48	=48	=48	=48	=48	=48	=48	=48	=48
8f#q	_	.	.	.	.	.	.	.
4g#	ten-	1r	.	1F#M	F#:maj (A# F# C#)	.	.	voice
4f#	-der	.	.	.	.	.	.	.
8c#q	_	.	.	.	.	.	.	.
4d#	fan-	.	.	.	.	.	.	.
8c#	-ta-	.	.	.	.	.	.	.
8c#	-sy	.	.	.	.	.	.	.
=49	=49	=49	=49	=49	=49	=49	=49	=49
4B	_	1r	.	1D#mm	D#:min7 (D# F# A# C#)	.	.	voice
4r	.	.	.	.	.	.	.	.
8r	.	.	.	.	.	.	.	.
8d#	You're	.	.	.	.	.	.	.
8c#	the	.	.	.	.	.	.	.
8c#	one,	.	.	.	.	.	.	.
=50	=50	=50	=50	=50	=50	=50	=50	=50
4B	_	1r	.	1G#mm	G#:min7 (G# B D# F#)	newline	102.282	voice
8r	.	.	.	.	.	.	.	.
8G#	I'm	.	.	.	.	.	.	.
8B	li	.	.	.	.	.	.	.
8c#	_	.	.	.	.	.	.	.
8d#	ving	.	.	.	.	.	.	.
8d#	for	.	.	.	.	.	.	.
=51	=51	=51	=51	=51	=51	=51	=51	=51
16c#	_	1r	.	1C#mm	C#:min7 (C# E G# B)	.	.	voice
16B	_	.	.	.	.	.	.	.
[8c#	_	.	.	.	.	.	.	.
2c#]	_	.	.	.	.	.	.	.
4r	.	.	.	.	.	.	.	.
=52	=52	=52	=52	=52	=52	=52	=52	=52
1r	.	1r	.	1F#M	F#:sus4(b7,9) (F# B C# E G#)	.	.	voice
=53	=53	=53	=53	=53	=53	=53	=53	=53
4r	.	1r	.	1F#M	F#:sus4(b7,9) (F# B C# E G#)	.	.	voice
8r	.	.	.	.	.	.	.	.
8A	Y-	.	.	.	.	.	.	.
6d#	-ou	.	.	.	.	.	.	.
6e	are	.	.	.	.	.	.	.
6f#	my	.	.	.	.	.	.	.
=54	=54	=54	=54	=54	=54	=54	=54	=54
*	*	*	*	*>A_verse	*>A_verse	*>A_verse	*>A_verse	*>A_verse
4f#	sun-	2f#	Ooh	1BM	B:maj (B D# F#)	newline	110.757	voice
[4g#	-light	.	.	.	.	.	.	.
8g#]	_	2b	_	.	.	.	.	.
8e	and	.	.	.	.	.	.	.
8d#	my	.	.	.	.	.	.	.
[8e	rain,	.	.	.	.	.	.	.
=55	=55	=55	=55	=55	=55	=55	=55	=55
8e]	_	1cc#	...	2EM	E:sus4(b7,9) (E A B D F#)	.	.	voice
8r	.	.	.	.	.	.	.	.
4r	.	.	.	.	.	.	.	.
4r	.	.	.	2EM	E:maj (E G# B)	.	.	voice
8r	.	.	.	.	.	.	.	.
8A#	and	.	.	.	.	.	.	.
=56	=56	=56	=56	=56	=56	=56	=56	=56
8f#q	_	.	.	.	.	.	.	.
4g#	time	1r	.	1F#M	F#:maj (A# F# C#)	.	.	voice
4f#	could	.	.	.	.	.	.	.
8c#q	_	.	.	.	.	.	.	.
4d#	ne-	.	.	.	.	.	.	.
8c#	-ver	.	.	.	.	.	.	.
8c#	change,	.	.	.	.	.	.	.
=57	=57	=57	=57	=57	=57	=57	=57	=57
4.B	_	1r	.	1D#mm	D#:min7 (D# F# A# C#)	.	.	voice
8r	.	.	.	.	.	.	.	.
8r	.	.	.	.	.	.	.	.
8d#	what	.	.	.	.	.	.	.
8c#	we	.	.	.	.	.	.	.
8c#	shared,	.	.	.	.	.	.	.
=58	=58	=58	=58	=58	=58	=58	=58	=58
4B	_	1r	.	1G#mm	G#:min7 (G# B D# F#)	newline	119.28	voice
8r	.	.	.	.	.	.	.	.
8G#	fo-	.	.	.	.	.	.	.
8B	-re	.	.	.	.	.	.	.
8c#	_	.	.	.	.	.	.	.
8d#	ver-	.	.	.	.	.	.	.
8d#	-more	.	.	.	.	.	.	.
=59	=59	=59	=59	=59	=59	=59	=59	=59
16c#	_	1r	.	1C#mm	C#:min7 (C# E G# B)	.	.	voice
16B	_	.	.	.	.	.	.	.
[8c#	_	.	.	.	.	.	.	.
2c#]	_	.	.	.	.	.	.	.
4r	.	.	.	.	.	.	.	.
=60	=60	=60	=60	=60	=60	=60	=60	=60
*clefG2	*	*	*	*	*	*	*	*
4r	.	1r	.	1F#M	F#:sus4(b7,9) (F# B C# E G#)	.	.	voice
8r	.	.	.	.	.	.	.	.
8cc#	Ooh	.	.	.	.	.	.	.
4b	_	.	.	.	.	.	.	.
16.g#	_	.	.	.	.	.	.	.
32f#	_	.	.	.	.	.	.	.
16g#	_	.	.	.	.	.	.	.
[16f#	_	.	.	.	.	.	.	.
=61	=61	=61	=61	=61	=61	=61	=61	=61
*clefF4	*	*	*	*	*	*	*	*
4f#]	_	1r	.	1F#M	F#:sus4(b7,9) (F# B C# E G#)	.	.	voice
8r	.	.	.	.	.	.	.	.
8B	I	.	.	.	.	.	.	.
6d#	ne-	.	.	.	.	.	.	.
6e	-ver	.	.	.	.	.	.	.
6f#	knew	.	.	.	.	.	.	.
=62	=62	=62	=62	=62	=62	=62	=62	=62
4f#	love	2f#	Ooh	1BM	B:maj (B D# F#)	newline	127.758	voice
[4g#	like	.	.	.	.	.	.	.
8g#]	_	2b	_	.	.	.	.	.
8e	this	.	.	.	.	.	.	.
8d#	be-	.	.	.	.	.	.	.
[8e	-fore,	.	.	.	.	.	.	.
=63	=63	=63	=63	=63	=63	=63	=63	=63
4e]	_	1cc#	...	2EM	E:sus4(b7,9) (E A B D F#)	.	.	voice
4r	.	.	.	.	.	.	.	.
4c#	now	.	.	2EM	E:maj (E G# B)	.	.	voice
8d#	I'm	.	.	.	.	.	.	.
8d#	l-	.	.	.	.	.	.	.
=64	=64	=64	=64	=64	=64	=64	=64	=64
8f#q	_	.	.	.	.	.	.	.
4g#	-one-	1r	.	1F#M	F#:maj (A# F# C#)	.	.	voice
4f#	-ly	.	.	.	.	.	.	.
8c#q	_	.	.	.	.	.	.	.
4d#	ne-	.	.	.	.	.	.	.
8c#	-ver-	.	.	.	.	.	.	.
8c#	-more,	.	.	.	.	.	.	.
=65	=65	=65	=65	=65	=65	=65	=65	=65
[4B	_	1r	.	1D#mm	D#:min7 (D# F# A# C#)	.	.	voice
8.B]	_	.	.	.	.	.	.	.
16r	.	.	.	.	.	.	.	.
8r	.	.	.	.	.	.	.	.
8d#	since	.	.	.	.	.	.	.
8c#	you	.	.	.	.	.	.	.
8c#	came,	.	.	.	.	.	.	.
=66	=66	=66	=66	=66	=66	=66	=66	=66
4B	_	1r	.	1G#mm	G#:min7 (G# B D# F#)	newline	136.277	voice
8r	.	.	.	.	.	.	.	.
8G#	in-	.	.	.	.	.	.	.
8B	-to	.	.	.	.	.	.	.
[8d#	my	.	.	.	.	.	.	.
8d#]	_	.	.	.	.	.	.	.
8c#q	_	.	.	.	.	.	.	.
8d#	life	.	.	.	.	.	.	.
=67	=67	=67	=67	=67	=67	=67	=67	=67
8c#q	_	.	.	.	.	.	.	.
8d#	_	1r	.	1C#mm	C#:min7 (C# E G# B)	.	.	voice
[8c#	_	.	.	.	.	.	.	.
2c#_	_	.	.	.	.	.	.	.
8c#]	_	.	.	.	.	.	.	.
8r	.	.	.	.	.	.	.	.
=68	=68	=68	=68	=68	=68	=68	=68	=68
2r	.	2r	.	1F#M	F#:sus4(b7,9) (F# B C# E G#)	.	.	voice
8r	.	8r	.	.	.	.	.	.
8B	'Cause	8d# f#	'Cause	.	.	.	.	.
8c#	I	8e g#	I	.	.	.	.	.
8d#	ne-	8g# b	ne-	.	.	.	.	.
=69	=69	=69	=69	=69	=69	=69	=69	=69
8c#q	_	.	.	.	.	.	.	.
8d#	-ver,	4g# b	-ver	1F#M	F#:sus4(b7,9) (F# B C# E G#)	.	.	voice
8c#	_	.	.	.	.	.	.	.
4r	.	4r	.	.	.	.	.	.
4r	.	4r	.	.	.	.	.	.
4d#	knew	4g# b	knew	.	.	.	.	.
=70	=70	=70	=70	=70	=70	=70	=70	=70
8c#	love	8f# a#	love	1BM	B:maj (B D# F#)	newline	144.757	voice
8c#	l-	8f# a#	l-	.	.	.	.	.
4c#	-ike	4f# a#	-ike	.	.	.	.	.
4f#	this	4b dd#	this	.	.	.	.	.
8B	be-	8g# b	be-	.	.	.	.	.
8Bq	_	.	.	.	.	.	.	.
8c#	-fore	[8e [g#	-fore!	.	.	.	.	.
=71	=71	=71	=71	=71	=71	=71	=71	=71
*clefG2	*	*	*	*	*	*	*	*
2B	_	2e] g#]	_	2EM	E:sus4(b7,9) (E A B D F#)	.	.	voice
2r	.	2r	.	2EM	E:maj (E G# B)	.	.	voice
=72	=72	=72	=72	=72	=72	=72	=72	=72
8f#	O-	2r	.	1F#M	F#:maj (A# F# C#)	.	.	voice
8g#	-pened	.	.	.	.	.	.	.
8b	my	.	.	.	.	.	.	.
[8b	eyes,	.	.	.	.	.	.	.
8b]	_	8r	.	.	.	.	.	.
8B	'cause	8d# f#	'Cause	.	.	.	.	.
8c#	I	8e g#	I	.	.	.	.	.
8d#	ne-	8g# b	ne-	.	.	.	.	.
=73	=73	=73	=73	=73	=73	=73	=73	=73
*clefF4	*	*	*	*	*	*	*	*
8Bq	_	.	.	.	.	.	.	.
8c#	-ver,	4g# b	-ver	1D#mm	D#:min7 (D# F# A# C#)	.	.	voice
8B	_	.	.	.	.	.	.	.
4r	.	4r	.	.	.	.	.	.
4r	.	4r	.	.	.	.	.	.
4d#	knew	4g# b	knew	.	.	.	.	.
=74	=74	=74	=74	=74	=74	=74	=74	=74
8c#	love	8f# a#	love	1G#mm	G#:min7 (G# B D# F#)	newline	153.275	voice
8c#	l-	8f# a#	l-	.	.	.	.	.
4c#	-ike	4f# a#	-ike	.	.	.	.	.
4f#	this	4b dd#	this	.	.	.	.	.
8d#	be-	8g# b	be-	.	.	.	.	.
8Bq	_	.	.	.	.	.	.	.
8c#	-fore	[8e [g#	-fore!	.	.	.	.	.
=75	=75	=75	=75	=75	=75	=75	=75	=75
[2B	_	2e] g#]	_	1C#mm	C#:min7 (C# E G# B)	.	.	voice
8B]	_	2r	.	.	.	.	.	.
8r	.	.	.	.	.	.	.	.
4r	.	.	.	.	.	.	.	.
=76	=76	=76	=76	=76	=76	=76	=76	=76
*clefG2	*	*	*	*	*	*	*	*
8cc#	What	2r	.	1F#M	F#:sus4(b7,9) (F# B C# E G#)	.	.	voice
8b	a	.	.	.	.	.	.	.
8g#	sur-	.	.	.	.	.	.	.
[8b	-prise!	.	.	.	.	.	.	.
8b]	_	8r	.	.	.	.	.	.
8B	'Cause	8d# f#	'Cause	.	.	.	.	.
8c#	I	8e g#	I	.	.	.	.	.
8d#	ne-	8g# b	ne-	.	.	.	.	.
=77	=77	=77	=77	=77	=77	=77	=77	=77
*clefF4	*	*	*	*	*	*	*	*
8c#q	_	.	.	.	.	.	.	.
8d#	-ver,	4g# b	-ver	2.F#M	F#:sus4(b7,9) (F# B C# E G#)	.	.	voice
8c#	_	.	.	.	.	.	.	.
4r	.	4r	.	.	.	.	.	.
4r	.	4r	.	.	.	.	.	.
8c#q	_	.	.	.	.	.	.	.
8d#	knew	4g# b	knew	4D#mm	D#:min7 (D# F# A# C#)	.	.	voice
8c#	_	.	.	.	.	.	.	.
=78	=78	=78	=78	=78	=78	=78	=78	=78
*	*	*	*	*>B_chorus	*>B_chorus	*>B_chorus	*>B_chorus	*>B_chorus
8c#	love	8f# a#	love	1EMM	E:maj7 (E G# B D#)	newline	161.75	voice
8c#	l-	8f# a#	l-	.	.	.	.	.
4c#	-ike	4f# a#	-ike	.	.	.	.	.
4f#	this	4b dd#	this	.	.	.	.	.
8B	be	8g# b	be-	.	.	.	.	.
8Bq	_	.	.	.	.	.	.	.
8c#	fore	[8e [g#	-fore!	.	.	.	.	.
=79	=79	=79	=79	=79	=79	=79	=79	=79
*clefG2	*	*	*	*	*	*	*	*
[2.B	_	2e] g#]	_	2D#mm	D#:min7 (D# F# A# C#)	.	.	voice
.	.	2r	.	2G#mm	G#:min7 (G# B D# F#)	.	.	voice
16B]	_	.	.	.	.	.	.	.
8r	.	.	.	.	.	.	.	.
[16f#	In	.	.	.	.	.	.	.
=80	=80	=80	=80	=80	=80	=80	=80	=80
8f#]	_	2r	.	1C#mm	C#:min7 (C# E G# B)	.	.	voice
8g#	side	.	.	.	.	.	.	.
8b	of	.	.	.	.	.	.	.
8cc#	me!	.	.	.	.	.	.	.
4.b	_	8r	.	.	.	.	.	.
.	.	8d# f#	'Cause	.	.	.	.	.
.	.	8e g#	I	.	.	.	.	.
8r	.	8g# b	ne-	.	.	.	.	.
=81	=81	=81	=81	=81	=81	=81	=81	=81
4r	.	4g# b	-ver	1D#mm	D#:min7 (D# F# A# C#)	.	.	voice
8b	Ne-	4r	.	.	.	.	.	.
8f#q	_	.	.	.	.	.	.	.
[8g#	-ver!	.	.	.	.	.	.	.
8g#]	_	4r	.	.	.	.	.	.
8r	.	.	.	.	.	.	.	.
8c#q	_	.	.	.	.	.	.	.
8d#	Knew	4g# b	knew	.	.	.	.	.
8c#	_	.	.	.	.	.	.	.
=82	=82	=82	=82	=82	=82	=82	=82	=82
8c#	love	8f# a#	love	1EMM	E:maj7 (E G# B D#)	newline	170.22	voice
8c#	l-	8f# a#	l-	.	.	.	.	.
4c#	-ike	4f# a#	-ike	.	.	.	.	.
4f#	this	4b dd#	this	.	.	.	.	.
8B	be-	8g# b	be-	.	.	.	.	.
8Bq	_	.	.	.	.	.	.	.
8c#	-fore	[8e [g#	-fore!	.	.	.	.	.
=83	=83	=83	=83	=83	=83	=83	=83	=83
2.B	_	2e] g#]	_	2D#mm	D#:min7 (D# F# A# C#)	.	.	voice
.	.	2r	.	2G#mm	G#:min7 (G# B D# F#)	.	.	voice
4r	.	.	.	.	.	.	.	.
=84	=84	=84	=84	=84	=84	=84	=84	=84
8f#	O-	1r	.	1C#mm	C#:min7 (C# E G# B)	.	.	voice
8g#	-pened	.	.	.	.	.	.	.
8b	my	.	.	.	.	.	.	.
[8b	eyes!	.	.	.	.	.	.	.
4.b]	_	.	.	.	.	.	.	.
8r	.	.	.	.	.	.	.	.
=85	=85	=85	=85	=85	=85	=85	=85	=85
2r	.	4r	.	1D#mm	D#:min7 (D# F# A# C#)	.	.	voice
.	.	8a#q	_	.	.	.	.	.
.	.	4b	Ne	.	.	.	.	.
.	.	8f#q	_	.	.	.	.	.
4r	.	4g#	ver,	.	.	.	.	.
8cc#	Ne-	4r	.	.	.	.	.	.
[8b	-ver!	.	.	.	.	.	.	.
=86	=86	=86	=86	=86	=86	=86	=86	=86
4b]	_	4r	.	1EMM	E:maj7 (E G# B D#)	newline	178.723	voice
.	.	8cc#q	_	.	.	.	.	.
4r	.	4dd#	ne	.	.	.	.	.
.	.	8bq	_	.	.	.	.	.
4r	.	2cc#	ver!	.	.	.	.	.
8r	.	.	.	.	.	.	.	.
8dd	Ne	.	.	.	.	.	.	.
=87	=87	=87	=87	=87	=87	=87	=87	=87
16.cc#	_	2r	.	2D#mm	D#:min7 (D# F# A# C#)	.	.	voice
32dd	_	.	.	.	.	.	.	.
16cc#	_	.	.	.	.	.	.	.
[16b	ver!	.	.	.	.	.	.	.
2b_	_	.	.	.	.	.	.	.
.	.	8f#	Ne-	2G#mm	G#:min7 (G# B D# F#)	.	.	voice
.	.	8g#	-ver	.	.	.	.	.
8b]	_	4b	knew	.	.	.	.	.
8r	.	.	.	.	.	.	.	.
=88	=88	=88	=88	=88	=88	=88	=88	=88
4r	.	4g# cc# ee	love	2C#m	C#:sus4(b7) (C# F# G# B)	.	.	voice
8r	.	4b dd# ff#	like	.	.	.	.	.
8g#	I	.	.	.	.	.	.	.
8r	.	4f# b dd#	this!	2C#Mm	C#:7 (C# E# G# B)	.	.	voice
8f#	ne-	.	.	.	.	.	.	.
8f#	-ver	4r	.	.	.	.	.	.
8ee	knew,	.	.	.	.	.	.	.
=89	=89	=89	=89	=89	=89	=89	=89	=89
8dd#	_	4r	.	1F#M	F#:sus4(b7,9) (F# B C# E G#)	.	.	voice
8cc#	_	.	.	.	.	.	.	.
.	.	8a#q	_	.	.	.	.	.
4b	_	4b	_	.	.	.	.	.
.	.	8f#q	_	.	.	.	.	.
8r	.	4g#	_	.	.	.	.	.
16f#	ne-	.	.	.	.	.	.	.
16f#	-ver	.	.	.	.	.	.	.
8f#	knew	4r	.	.	.	.	.	.
8ee	_	.	.	.	.	.	.	.
=90	=90	=90	=90	=90	=90	=90	=90	=90
*	*	*	*	*>A2_verse	*>A2_verse	*>A2_verse	*>A2_verse	*>A2_verse
8dd#	_	4r	.	1BM	B:maj (B D# F#)	newline	187.189	voice
8cc#	_	.	.	.	.	.	.	.
.	.	8cc#q	_	.	.	.	.	.
4b	_	4dd#	_	.	.	.	.	.
.	.	8bq	_	.	.	.	.	.
6r	.	2cc#	_	.	.	.	.	.
8bq	_	.	.	.	.	.	.	.
6cc#	Ne-	.	.	.	.	.	.	.
[6b	-ver!	.	.	.	.	.	.	.
=91	=91	=91	=91	=91	=91	=91	=91	=91
2b]	_	2r	.	2EM	E:sus4(b7,9) (E A B D F#)	.	.	voice
2r	.	8f#	_	2EM	E:maj (E G# B)	.	.	voice
.	.	8g#	_	.	.	.	.	.
.	.	4b	_	.	.	.	.	.
=92	=92	=92	=92	=92	=92	=92	=92	=92
2r	.	4g# cc# ee	_	1F#M	F#:maj (A# F# C#)	.	.	voice
.	.	4b dd# ff#	_	.	.	.	.	.
8r	.	4f# b dd#	_	.	.	.	.	.
8f#	I	.	.	.	.	.	.	.
16f#	ne-	4r	.	.	.	.	.	.
16f#	-ver	.	.	.	.	.	.	.
8f#	knew!	.	.	.	.	.	.	.
=93	=93	=93	=93	=93	=93	=93	=93	=93
8ee	_	4r	.	1D#mm	D#:min7 (D# F# A# C#)	.	.	voice
8dd#	_	.	.	.	.	.	.	.
.	.	8a#q	_	.	.	.	.	.
8cc#	_	4b	Ne	.	.	.	.	.
8r	.	.	.	.	.	.	.	.
.	.	8f#q	_	.	.	.	.	.
8r	.	4g#	ver,	.	.	.	.	.
16f#	Ne-	.	.	.	.	.	.	.
16f#	-ver	.	.	.	.	.	.	.
8f#	knew!	4r	.	.	.	.	.	.
8ee	_	.	.	.	.	.	.	.
=94	=94	=94	=94	=94	=94	=94	=94	=94
8dd#	_	4r	.	1G#mm	G#:min7 (G# B D# F#)	newline	195.719	voice
8cc#	_	.	.	.	.	.	.	.
.	.	8cc#q	_	.	.	.	.	.
4b	_	4dd#	ne	.	.	.	.	.
.	.	8bq	_	.	.	.	.	.
8r	.	2cc#	ver!	.	.	.	.	.
8cc#	Ne-	.	.	.	.	.	.	.
[4b	-ver!	.	.	.	.	.	.	.
=95	=95	=95	=95	=95	=95	=95	=95	=95
4b]	_	2r	.	1C#mm	C#:min7 (C# E G# B)	.	.	voice
4r	.	.	.	.	.	.	.	.
2r	.	8f#	Ne-	.	.	.	.	.
.	.	8g#	-ver	.	.	.	.	.
.	.	4b	knew	.	.	.	.	.
=96	=96	=96	=96	=96	=96	=96	=96	=96
4r	.	4g# cc# ee	love	1F#M	F#:sus4(b7,9) (F# B C# E G#)	.	.	voice
8r	.	4b dd# ff#	like	.	.	.	.	.
8g#	I	.	.	.	.	.	.	.
16f#	ne-	4f# b dd#	this!	.	.	.	.	.
16f#	-ver	.	.	.	.	.	.	.
8f#	knew,	.	.	.	.	.	.	.
8g#	I	4r	.	.	.	.	.	.
16f#	ne-	.	.	.	.	.	.	.
16f#	-ver	.	.	.	.	.	.	.
=97	=97	=97	=97	=97	=97	=97	=97	=97
8r	knew,	4r	.	1F#M	F#:sus4(b7,9) (F# B C# E G#)	.	.	voice
8g#	I	.	.	.	.	.	.	.
.	.	8a#q	_	.	.	.	.	.
16f#	ne-	4b	Ne	.	.	.	.	.
16f#	-ver	.	.	.	.	.	.	.
8f#	knew,	.	.	.	.	.	.	.
.	.	8f#q	_	.	.	.	.	.
8g#	I	4g#	ver,	.	.	.	.	.
16f#	ne-	.	.	.	.	.	.	.
16f#	-ver	.	.	.	.	.	.	.
8f#	knew,	4r	.	.	.	.	.	.
8g#	I	.	.	.	.	.	.	.
=98	=98	=98	=98	=98	=98	=98	=98	=98
16f#	ne-	4r	.	1BM	B:maj (B D# F#)	newline	204.244	voice
16f#	-ver	.	.	.	.	.	.	.
8f#	knew,	.	.	.	.	.	.	.
.	.	8cc#q	_	.	.	.	.	.
8g#	I	4dd#	ne	.	.	.	.	.
16f#	ne-	.	.	.	.	.	.	.
16f#	-ver	.	.	.	.	.	.	.
.	.	8bq	_	.	.	.	.	.
8f#	knew,	2cc#	ver!	.	.	.	.	.
8g#	I	.	.	.	.	.	.	.
8f#	ne-	.	.	.	.	.	.	.
[8f#	-ver!	.	.	.	.	.	.	.
=99	=99	=99	=99	=99	=99	=99	=99	=99
4f#]	_	1r	.	2EM	E:sus4(b7,9) (E A B D F#)	.	.	voice
4r	.	.	.	.	.	.	.	.
2r	.	.	.	2EM	E:maj (E G# B)	.	.	voice
=100	=100	=100	=100	=100	=100	=100	=100	=100
1r	.	1r	.	1F#M	F#:maj (A# F# C#)	.	.	voice
*-	*-	*-	*-	*	*	*	*
=100	=100	=100	=100	=100
1D#mm	D#:min7 (D# F# A# C#)	.	.	voice
=101	=101	=101	=101	=101
1G#mm	G#:min7 (G# B D# F#)	newline	212.682	voice
=102	=102	=102	=102	=102
1C#mm	C#:min7 (C# E G# B)	.	.	voice
=103	=103	=103	=103	=103
1F#M	F#:sus4(b7,9) (F# B C# E G#)	.	.	voice
=104	=104	=104	=104	=104
2.F#M	F#:sus4(b7,9) (F# B C# E G#)	.	.	voice
4D#mm	D#:min7 (D# F# A# C#)	.	.	voice
=105	=105	=105	=105	=105
*>B2_chorus	*>B2_chorus	*>B2_chorus	*>B2_chorus	*>B2_chorus
1EMM	E:maj7 (E G# B D#)	newline	221.175	voice
=106	=106	=106	=106	=106
2D#mm	D#:min7 (D# F# A# C#)	.	.	voice
2G#mm	G#:min7 (G# B D# F#)	.	.	voice
=107	=107	=107	=107	=107
1C#mm	C#:min7 (C# E G# B)	.	.	voice
=108	=108	=108	=108	=108
1D#mm	D#:min7 (D# F# A# C#)	.	.	voice
=109	=109	=109	=109	=109
1EMM	E:maj7 (E G# B D#)	newline	229.669	voice
=110	=110	=110	=110	=110
2D#mm	D#:min7 (D# F# A# C#)	.	.	voice
2G#mm	G#:min7 (G# B D# F#)	.	.	voice
=111	=111	=111	=111	=111
1C#mm	C#:min7 (C# E G# B)	.	.	voice
=112	=112	=112	=112	=112
1D#mm	D#:min7 (D# F# A# C#)	.	.	voice
=113	=113	=113	=113	=113
1EMM	E:maj7 (E G# B D#)	newline	238.19	voice
=114	=114	=114	=114	=114
2D#mm	D#:min7 (D# F# A# C#)	.	.	voice
2G#mm	G#:min7 (G# B D# F#)	.	.	voice
=115	=115	=115	=115	=115
1C#mm	C#:min7 (C# E G# B)	.	.	voice
=116	=116	=116	=116	=116
1D#mm	D#:min7 (D# F# A# C#)	.	.	voice
=117	=117	=117	=117	=117
1EMM	E:maj7 (E G# B D#)	newline	246.692	voice
=118	=118	=118	=118	=118
2D#mm	D#:min7 (D# F# A# C#)	.	.	voice
2G#mm	G#:min7 (G# B D# F#)	.	.	voice
=119	=119	=119	=119	=119
1C#mm	C#:min7 (C# E G# B)	.	.	voice
=120	=120	=120	=120	=120
1D#mm	D#:min7 (D# F# A# C#)	.	.	voice
=121	=121	=121	=121	=121
*>B2_outro	*>B2_outro	*>B2_outro	*>B2_outro	*>B2_outro
1EMM	E:maj7 (E G# B D#)	newline	255.163	voice
=122	=122	=122	=122	=122
2D#mm	D#:min7 (D# F# A# C#)	.	.	voice
2G#mm	G#:min7 (G# B D# F#)	.	.	voice
=123	=123	=123	=123	=123
1C#mm	C#:min7 (C# E G# B)	.	.	voice
=124	=124	=124	=124	=124
1D#mm	D#:min7 (D# F# A# C#)	.	.	voice
=125	=125	=125	=125	=125
1EMM	E:maj7 (E G# B D#)	newline	263.649	voice
=126	=126	=126	=126	=126
2D#mm	D#:min7 (D# F# A# C#)	.	.	voice
2G#mm	G#:min7 (G# B D# F#)	.	.	voice
=127	=127	=127	=127	=127
1C#mm	C#:min7 (C# E G# B)	.	.	voice
=128	=128	=128	=128	=128
1D#mm	D#:min7 (D# F# A# C#)	.	.	voice
=129	=129	=129	=129	=129
1EMM	E:maj7 (E G# B D#)	newline	272.131	voice
=130	=130	=130	=130	=130
2D#mm	D#:min7 (D# F# A# C#)	.	.	voice
2G#mm	G#:min7 (G# B D# F#)	.	.	voice
=131	=131	=131	=131	=131
1C#mm	C#:min7 (C# E G# B)	.	.	voice
=132	=132	=132	=132	=132
1D#mm	D#:min7 (D# F# A# C#)	.	.	voice
=133	=133	=133	=133	=133
1EMM	E:maj7 (E G# B D#)	newline	280.662	voice
=134	=134	=134	=134	=134
2D#mm	D#:min7 (D# F# A# C#)	.	.	voice
2G#mm	G#:min7 (G# B D# F#)	.	.	voice
=135	=135	=135	=135	=135
1C#mm	C#:min7 (C# E G# B)	.	.	voice
=136	=136	=136	=136	=136
1D#mm	D#:min7 (D# F# A# C#)	.	.	voice
=137	=137	=137	=137	=137
1EMM	E:maj7 (E G# B D#)	newline	289.141	voice
=138	=138	=138	=138	=138
2D#mm	D#:min7 (D# F# A# C#)	.	.	voice
2G#mm	G#:min7 (G# B D# F#)	.	.	voice
=139	=139	=139	=139	=139
1C#mm	C#:min7 (C# E G# B)	.	.	voice
=140	=140	=140	=140	=140
1D#mm	D#:min7 (D# F# A# C#)	.	.	voice
=141	=141	=141	=141	=141
1EMM	E:maj7 (E G# B D#)	newline	297.623	voice
=142	=142	=142	=142	=142
2D#mm	D#:min7 (D# F# A# C#)	.	.	voice
2G#mm	G#:min7 (G# B D# F#)	.	.	voice
=143	=143	=143	=143	=143
1C#mm	C#:min7 (C# E G# B)	.	.	voice
=144	=144	=144	=144	=144
1D#mm	D#:min7 (D# F# A# C#)	.	.	voice
=145	=145	=145	=145	=145
*>_fadeout	*>_fadeout	*>_fadeout	*>_fadeout	*>_fadeout
1EMM	E:maj7 (E G# B D#)	newline	306.093	voice
=146	=146	=146	=146	=146
2D#mm	D#:min7 (D# F# A# C#)	.	.	voice
2G#mm	G#:min7 (G# B D# F#)	.	.	voice
=147	=147	=147	=147	=147
1C#mm	C#:min7 (C# E G# B)	.	.	voice
=148	=148	=148	=148	=148
1D#mm	D#:min7 (D# F# A# C#)	.	.	voice
=149	=149	=149	=149	=149
1EMM	E:maj7 (E G# B D#)	newline	314.622	voice
=150	=150	=150	=150	=150
2D#mm	D#:min7 (D# F# A# C#)	.	.	voice
2G#mm	G#:min7 (G# B D# F#)	.	.	voice
=151	=151	=151	=151	=151
1C#mm	C#:min7 (C# E G# B)	.	.	voice
=152	=152	=152	=152	=152
1D#mm	D#:min7 (D# F# A# C#)	.	.	voice
1r;	r	.	322.854	r
1r;	r	.	324.497	r
*-	*-	*-	*-	*-
!!!BillboardChartDate: 1980/12/06
!!!BillboardPeak: 6
!!!BillboardWeeksOnChart: 25
!!!COC: Stephanie Mills
!!!ENC: Nathaniel Condit-Schultz
!!!EST: Awating manual error checking and editing.
!!!OTL: Never Knew Love Like This Before
!!!RDF**chordsym: original McGill chord annotation + (implied pitch class set, with bass pitch in first position)
!!!RDF**harmony: **recip + pitch class of root + harmonic quality
!!!RDF**leadinstrument: original McGill primary instrumentation annotation
!!!RDF**phrase: newline = linebreak in original McGill transcription
!!!RDF**timestamp: McGill audio timestamp in seconds
!!!RDT: 2017/01/12/
!!!SampleActualRank: 33
!!!SampleID#: 1112
!!!SampleTargetRank: 33
